proprietary/assets/icons/communicatie/verbodbellen.svg

<svg viewBox="0 0 64 64" xmlns="http://www.w3.org/2000/svg"><path d="m0 0h64v64h-64z" fill="none"/><path d="m58.33 56.21-11.19-11.21-4-4-22-22-4-4-9.41-9.39-2.12 2.12 11.53 11.53v33.08a4.27 4.27 0 0 0 3.44 4h.13q3.22.46 6.43.68l2.2.1c1.87.07 3.73.07 5.6 0l2.2-.1q3.21-.21 6.43-.68a4.37 4.37 0 0 0 3.3-2.64 3 3 0 0 0 .11-.32 2.37 2.37 0 0 0 .09-.36 3.08 3.08 0 0 0 .07-.68v-3.08l9.07 9.07zm-26.19-1.84a2.7 2.7 0 1 1 2.7-2.7 2.7 2.7 0 0 1 -2.7 2.7zm11-8.2h-22v-22.91l22 22z"/><path d="m21.14 14.17h22v24l4 4v-30.17a4.14 4.14 0 0 0 -3.42-4 80.47 80.47 0 0 0 -23.09 0 4.21 4.21 0 0 0 -3.49 4v.19l4 4z"/></svg>

<svg xmlns="http://www.w3.org/2000/svg" viewBox="0 0 64 64"><defs><style>.cls-1{fill:none;}</style></defs><g id="BOX"><rect class="cls-1" width="64" height="64"/></g><g id="ICOON"><path d="M58.33,56.21,47.14,45l-4-4-22-22-4-4L7.73,5.61,5.61,7.73,17.14,19.26V52.34a4.27,4.27,0,0,0,3.44,4l.13,0q3.22.46,6.43.68l2.2.1c1.87.07,3.73.07,5.6,0l2.2-.1q3.21-.21,6.43-.68a4.37,4.37,0,0,0,3.3-2.64,3,3,0,0,0,.11-.32,2.37,2.37,0,0,0,.09-.36,3.08,3.08,0,0,0,.07-.68V49.26l9.07,9.07ZM32.14,54.37a2.7,2.7,0,1,1,2.7-2.7A2.7,2.7,0,0,1,32.14,54.37Zm11-8.2h-22V23.26l22,22Z"/><path d="M21.14,14.17h22v24l4,4V12a4.14,4.14,0,0,0-3.42-4A80.47,80.47,0,0,0,20.63,8a4.21,4.21,0,0,0-3.49,4v.19l4,4Z"/></g></svg>
